X:1
T:Title
%%score { 1 | 2 }
L:1/8
M:2/4
K:G
V:1 treble nm="Grand Piano"
V:2 bass 
V:1
 z2 z[Q:1/4=92] D/D/ | B2 BB | B B2 B | B[G,DG] [G,DF][G,CE] | [G,B,D]3 [B,D] | [Fc][Fc] [Fc][Fc] | %6
 [Fc]2 [Fc][Fc] | [Fc]F E^D | D3 D | [DB][DB] [DB][DB] | [DGB] [DGB]2 [DGB] | [CGc][CGc] [Gd][Gd] | %12
 [Ge]3 [Ge] | dd de | dB [DG][EA] | [DB]2 [GA]2 |[M:3/8] [Fd]3 |[M:1/8] D |[M:2/4] G G2 A | %19
 B2 [FA]2 | B B2 c | d2 e2 | d B2 G | [CGB][CGB] [CGA]2 |[M:3/8] [DFd]3 |[M:1/8] D | %26
[M:2/4] G G2 A | B2 [FA]2 | B B2 c | d2 [Ge]2 | [Gd] [DGB]2 [^CG] | [DFB][DFB] [CFA]2 | %32
[M:3/8] [G,B,DG]3 |] %33
V:2
 z2 z [G,B,]/[G,B,]/ | [G,D]2 [G,D][G,D] | [G,D] [G,D]2 [G,D] | [G,D]B,, C,C, | G,,3 G, | %5
 [D,A,][D,A,] [D,A,][D,A,] | [D,A,]2 [D,A,][D,A,] | [D,A,][D,A,D] [D,G,D][D,G,C] | %8
 [D,F,C]3 [D,F,] | [G,,G,][G,,G,] [G,,G,]G, | =F, F,2 F, | E,E, [D,B,][D,B,] | [C,C]3 [C,C] | %13
 [G,B,G][G,B,G] [G,B,G][G,CG] | [G,B,G][K:bass][G,D] [B,,G,][C,G,] | [D,G,]2 [E,^C]2 | %16
[M:3/8] [D,C]3 |[M:1/8] [F,C] |[M:2/4][K:treble] [G,B,D] [G,B,D]2 [G,CD] | [G,DG]2 [D,D]2 | %20
 [G,DG] [G,DG]2 [G,A,G] | [G,B,G]2 [G,CG]2 | [G,B,G] [G,DG]2[K:bass] [G,B,] | E,E, A,2 | %24
[M:3/8] D,[K:treble]CB, |[M:1/8] [A,C] |[M:2/4] [G,B,D] [G,B,D]2 [G,CD] | [G,DG]2 [D,D]2 | %28
 [G,DG] [G,DG]2 [A,DG] | [B,DG]2[K:bass] [C,C]2 | [D,B,] D,2 E, | D,D, D,2 |[M:3/8] G,,3 |] %33

